X: 10682
M: C|
L: 1/8
K: A
uc |\
aA A/A/A (cA)Ag | aAAa fedc | bB B/B/B (dB)B^a | bBBa gfeg |
aA A/A/A (cA)Ag | aAAa fedc | (Bc)de (fe)cf | ecBc f2"_Fine."a |]


